X:1
T:Title
%%score ( 1 2 ) { 3 | 4 }
L:1/8
Q:1/4=100
M:4/4
K:Ab
V:1 treble nm="Grand Piano, Soprano"
V:2 treble 
V:3 bass nm="Choir Pad, Bass"
V:4 bass 
V:1
 [CE][CA] [Ec]2 [DB][Ec] [CA]2 | [EA][EA] [DB]2 [DB]2 [DF]2 | z4 z2 .B2 | [Ed]2 [Ec]6 | %4
w: By~James~Monroe~Hagan * * * * *||||
 [CE][CA] [Ec]2 [DB][Ec] [CA]2 | [EA][EA] [DB]2 [DB]2 [DF]2 | [=DF][DA] [EG]2 [Ec][Ed] [Ec]2 | %7
w: |||
 [DB]2 [CA]6 | [CA][EG] [DF]2 [Fd][Fc] [Fd]2 | [EG][DF] [CE]2 [Ec][=D_c] [E=c]2 | %10
w: |||
 [CA][EG] [DF]2 [DF][DA] [Ec]2 | z2 e6 | [Ec][Ed] [Ae]2 [Ae][Ae] [Ae]2 | %13
w: |||
 [EA][EA] [FB]2 [Fc]>[Fc] [Fd]2 | [=DF][DA] [EG]2 [Ec][Ed] [Ec]2 | z2 A6- | A6 z2 |] %17
w: ||||
V:2
 x8 | x8 | [=DF][DA] [EG]2 [_DG][CA]E-[Ec] | x8 | x8 | x8 | x8 | x8 | x8 | x8 | x8 | %11
 [EB][FA] G2 BA G2 | x8 | x8 | x8 | [DB][DB] C2 DD C2- | C6 z2 |] %17
V:3
 A,E, A,2 A,A, E,2 | A,A, F,2 F,2 B,2 | B,B, B,2 B,A,G,A, | B,2 A,6 | A,A, A,2 A,A, E,2 | %5
 A,A, F,2 F,2 B,2 | B,B, B,2 A,B, A,2 | G,2 A,6 | A,A, A,2 A,A, A,2 | A,A, A,6 | %10
 A,A, A,2 A,A, A,2 | B,B, B,2 DC B,2 | A,B,[K:treble] C2 CC C2 | CC[K:bass] B,2 =A,>A, B,2 | %14
 B,B, B,2 A,B, A,2 | G,G, A,2 F,F, E,2- | E,6 z2 |] %17
V:4
 A,,A,, A,,2 A,,A,, A,,2 | C,C, D,2 D,2 D,2 | B,,B,, E,2 E,E, E,2 | E,2 z2 z4 | %4
 A,,[A,,E,] A,,2 A,,A,, A,,2 | C,C, D,2 D,2 D,2 | B,,B,, E,2 E,E, E,2 | E,2 A,,6 | %8
 A,,C, D,2 D,D, D,2 | D,D, A,,6 | A,,C, D,2 D,F, z2 | G,F, E,6 | z A, A,2 A,A, A,2 | %13
 A,,A,, D,2 C,>C, B,,2 | B,,B,, E,2 E,E, E,2 | E,E, A,,6- | A,,6 z2 |] %17

